X: 3
T:Missa Ave maris stella / Credo
N: Derived from Jos0301c-Missa_Ave_maris_stella-Credo.krn
C: Josquin des Prez
%%abc-version 2.0
%%abcx-abcm2ps-target-version 5.9.1 (29 Sep 2008)
%%abc-creator hum2abc beta
%%abcx-conversion-date 2019/02/12 16:15:38
%%abc-edited-by Jesse Rodin
%%abc-edited-by Jesse Rodin; Victoria Chang 2011/04/01/
%%abcx-initial-encoding-date 2011/04/01/
%%humdrum-veritas 353112892
%%humdrum-veritas-data 3648340850
%%linebreak <none>
%%barnumbers 0
L: 1/4
M: 3/1
Q: 1/2=120
%%staves [1 2 3 4]
V: 1 clef=treble
V: 2 clef=treble-8
V: 3 clef=treble-8
V: 4 clef=bass
K: F
[V:1] z12 | 
[V:2] G4d4d4 | 
[V:3] z12 | 
[V:4] z12 | 
[V:1] G4d4d4 | 
[V:2] e4d2f4ed | 
[V:3] z12 | 
[V:4] z12 | 
[V:1] e4d2f4ed | 
[V:2] c4z2d2d2d2 | 
[V:3] z12 | 
[V:4] z12 | 
[V:1] c4z2d2d2d2 | 
[V:2] e2f2e2f3ed2 | 
[V:3] z12 | 
[V:4] z12 | 
[V:1] e2f3ed2c2A2 | 
[V:2] c2A2B4A4 | 
[V:3] z12 | 
[V:4] z12 | 
[V:1] B4A4z2d2- | 
[V:2] z2d3dd2B2G2 | 
[V:3] z12 | 
[V:4] z12 | 
[V:1] ddd2B2G2B3c | 
[V:2] B3cd2_e2d2g2 | 
[V:3] z12 | 
[V:4] z12 | 
[V:1] d2_e2d2f3ec2 | 
[V:2] f2g3fd3c_e2- | 
[V:3] z12 | 
[V:4] z12 | 
[V:1] B2d3cA2G2B2- | 
[V:2] edB3Ac3BG2 | 
[V:3] z12 | 
[V:4] z12 | 
[V:1] BAF2G4A4 | 
[V:2] B2A3Gg4^f2 | 
[V:3] z12 | 
[V:4] z12 | 
[V:1] G2d2c2B4AG | 
[V:2] g4z4G4 | 
[V:3] z12 | 
[V:4] z12 | 
[V:1] A8z4 | 
[V:2] d4d2d2d2d2 | 
[V:3] z12 | 
[V:4] z4z4D,4 | 
[V:1] c3cc2c2c2c2 | 
[V:2] e8c4 | 
[V:3] z12 | 
[V:4] A,4A,2A,2A,2A,2 | 
[V:1] B2d4c2B4 | 
[V:2] d4g8 | 
[V:3] G12 | 
[V:4] B,2G,2B,2C2D4 | 
[V:1] A6GFA3B | 
[V:2] f4d2f4ed | 
[V:3] d12 | 
[V:4] D,8z4 | 
[V:1] c4c8 | 
[V:2] c2A2c3de2f2- | 
[V:3] e8c4 | 
[V:4] A,12 | 
[V:1] F2f3ed3cd2 | 
[V:2] fedcd2B2d4 | 
[V:3] d4f8 | 
[V:4] B,12 | 
[V:1] G2c4B2G3A | 
[V:2] z2c4g2e2c2 | 
[V:3] e12 | 
[V:4] C3B,A,2G,2C4 | 
[V:1] B2c4F2c4 | 
[V:2] d2c3Ad4c2 | 
[V:3] f12 | 
[V:4] B,2A,3F,B,2A,4 | 
[V:1] B4c2d4cB | 
[V:2] d2G2A2B2G2d2- | 
[V:3] g3fe2d2g4 | 
[V:4] G,4z2G,3F,G,A, | 
[V:1] d2c3Ad4^c2 | 
[V:2] dcA3GA2B2c2 | 
[V:3] f2e3cf2e4 | 
[V:4] B,2C2A,2F,2G,2A,2 | 
[V:1] d12 | 
[V:2] A2f4g2d2g2 | 
[V:3] d12- | 
[V:4] D,4z2G,2G,2G,2 | 
[V:1] z4z2d2d2d2 | 
[V:2] f2b3agfg4 | 
[V:3] d12 | 
[V:4] B,3A,G,F,G,4F,E, | 
[V:1] f3edcd4cB | 
[V:2] f8B4 | 
[V:3] z4z2d2d2d2 | 
[V:4] D,2DCB,A,B,4A,G, | 
[V:1] A2D3EFGA2B2 | 
[V:2] z12 | 
[V:3] f3edcd4cB | 
[V:4] F,2B,,2B,3A,F,2G,2 | 
[V:1] c2F3GB2A2D2- | 
[V:2] z2d2d2d2f3e | 
[V:3] A4z4z4 | 
[V:4] A,2D,3E,G,2F,2B,,2 | 
[V:1] DEFGABG4^F2 | 
[V:2] dcd4B2A4 | 
[V:3] z12 | 
[V:4] B,3A,F,2G,2D,4 | 
[V:1] G4z4z4 | 
[V:2] G8z4 | 
[V:3] z2d2d2d2f3e | 
[V:4] G,2G,2G,2B,3A,F,2 | 
[V:1] z12 | 
[V:2] z12 | 
[V:3] dcd4B2A4 | 
[V:4] G,3F,D,2G,4^F,2 | 
[V:1] z2d2d2d2B3G | 
[V:2] z4z2g2g2g2 | 
[V:3] G8z4 | 
[V:4] G,12 | 
[V:1] G4G2A2B2c2- | 
[V:2] e3cc2c2d2e2 | 
[V:3] z12 | 
[V:4] z12 | 
[V:1] ccc2A2B2c2d2- | 
[V:2] f3ff2d2e2f2 | 
[V:3] z12 | 
[V:4] z12 | 
[V:1] d2c2B2G2A4 | 
[V:2] g2c2d2e2f4 | 
[V:3] z12 | 
[V:4] z12 | 
[V:1] D4z2d3dd2 | 
[V:2] f8z2f2- | 
[V:3] B3BB2B2B4 | 
[V:4] z12 | 
[V:1] c2A3GABc3B | 
[V:2] fff2f2f2c3d | 
[V:3] A2FGABc4A2 | 
[V:4] F,3F,F,2F,2F,4 | 
[V:1] G4z4z2G2 | 
[V:2] efg4d2g3f | 
[V:3] c3BG4z2G2 | 
[V:4] E,2C,D,E,F,G,4E,2 | 
[V:1] G2G2F2A2G2A2- | 
[V:2] d2G2A3Bc2A2 | 
[V:3] B2c2d2f2e2f2- | 
[V:4] G,3F,D,4z2D,2 | 
[V:1] AcBAc2G2z2G2 | 
[V:2] a2g2e4d2e2- | 
[V:3] fed2c4z4 | 
[V:4] F,2G,2A,2C2B,2C2- | 
[V:1] A2c2B2d2c2A2 | 
[V:2] edefg2d2e2f2 | 
[V:3] c4d2B2c2d2- | 
[V:4] CB,A,2G,4z4 | 
[V:1] z2d2c2A2d2c2- | 
[V:2] B4c2d4A2 | 
[V:3] dcB2A4B2c2 | 
[V:4] G,4A,2F,2G,2A,2- | 
[V:1] cBA2G3FDCF2- | 
[V:2] c4z2G2B2A2 | 
[V:3] A2c4B3AF2 | 
[V:4] A,G,F,2_E,3D,B,,2D,2 | 
[V:1] F2E2F4F4 | 
[V:2] c12 | 
[V:3] G4F4z2A2 | 
[V:4] C,4z4F,4 | 
[V:1] z12 | 
[V:2] z12 | 
[V:3] A2B4A2B2c2 | 
[V:4] F,2G,4F,2G,2A,2 | 
[V:1] z4A2A2A2B2- | 
[V:2] z4f2f2f2g2- | 
[V:3] A8z4 | 
[V:4] F,3D,D,4z4 | 
[V:1] B2A2B2c2A3G | 
[V:2] g2f2g2a2fdf2- | 
[V:3] z12 | 
[V:4] z4z4z2D,2 | 
[V:1] ABc3BG3FDE | 
[V:2] fecdefg2z2G2 | 
[V:3] z2A2c3BG2B2 | 
[V:4] F,3E,C,3D,E,F,G,2 | 
[V:1] FGA3GG4^F2 | 
[V:2] A2F2c4d4 | 
[V:3] A2c3BG2A4 | 
[V:4] F,3E,C,2E,2D,4 | 
[V:1] G12 ||  
[V:2] G12 ||  
[V:3] G12 ||  
[V:4] G,12 ||  
[V:1] [M:2/1]z8 | 
[V:2] [M:2/1]z8 | 
[V:3] [M:2/1]G4d2d2 | 
[V:4] [M:2/1]z4G,4 | 
[V:1] z8 | 
[V:2] z8 | 
[V:3] e4c4 | 
[V:4] G,2G,2A,4 | 
[V:1] z4z2G2 | 
[V:2] z8 | 
[V:3] d4z4 | 
[V:4] F,4G,4 | 
[V:1] d2d2e4 | 
[V:2] z2g2g2g2 | 
[V:3] z8 | 
[V:4] z8 | 
[V:1] c4d3c | 
[V:2] a4f4 | 
[V:3] z8 | 
[V:4] z8 | 
[V:1] BAB4AG | 
[V:2] g6fe | 
[V:3] z8 | 
[V:4] z2G,2G,2A,2 | 
[V:1] F4z4 | 
[V:2] d4G4 | 
[V:3] z2d2d2e2 | 
[V:4] B,6A,G, | 
[V:1] z8 | 
[V:2] z8 | 
[V:3] f6ed | 
[V:4] A,2F,2A,2B,2 | 
[V:1] z2G2G2A2 | 
[V:2] z4c4 | 
[V:3] e2c2e2f2 | 
[V:4] C6B,A, | 
[V:1] B3cdef2- | 
[V:2] d2G2B2A2 | 
[V:3] g6f2 | 
[V:4] G,6D,2 | 
[V:1] fed4^c2 | 
[V:2] a6ga | 
[V:3] d2f2e4 | 
[V:4] F,3G,A,4 | 
[V:1] d4z2d2 | 
[V:2] f4z2d2 | 
[V:3] d8 | 
[V:4] D,8 | 
[V:1] G2A2B2c2 | 
[V:2] e2f2g2e2 | 
[V:3] z8 | 
[V:4] z8 | 
[V:1] A4z2A2 | 
[V:2] f8 | 
[V:3] z4z2d2 | 
[V:4] z4z2D,2 | 
[V:1] G2c2B2G2 | 
[V:2] z2f2d2e2 | 
[V:3] G2A2B2c2 | 
[V:4] E,2F,2G,2E,2 | 
[V:1] A6F2 | 
[V:2] c6d2 | 
[V:3] !fermata!A8- | 
[V:4] F,6D,2 | 
[V:1] !fermata!F8 | 
[V:2] !fermata!d8 | 
[V:3] A8 | 
[V:4] !fermata!D,8 | 
[V:1] z8 | 
[V:2] z4d4 | 
[V:3] G4B4 | 
[V:4] z8 | 
[V:1] z8 | 
[V:2] f4f4 | 
[V:3] B4A4 | 
[V:4] z8 | 
[V:1] z8 | 
[V:2] e4z2e2 | 
[V:3] z2A2A2c2- | 
[V:4] z8 | 
[V:1] z8 | 
[V:2] e2g4fe | 
[V:3] c2BAG3A | 
[V:4] z8 | 
[V:1] z8 | 
[V:2] d2f2e4 | 
[V:3] Bcd4^c2 | 
[V:4] z8 | 
[V:1] z8 | 
[V:2] d2d2d2d2 | 
[V:3] d4z2d2 | 
[V:4] z8 | 
[V:1] z8 | 
[V:2] G3ABcd2- | 
[V:3] d2d2G2B2- | 
[V:4] z8 | 
[V:1] z8 | 
[V:2] dcf4e2 | 
[V:3] BcA2G4 | 
[V:4] z8 | 
[V:1] A6A2 | 
[V:2] f2f4f2 | 
[V:3] F4A3B | 
[V:4] z2F,4F,2 | 
[V:1] A2A2G2E2 | 
[V:2] f3ed2^c2 | 
[V:3] c2A2B2c2 | 
[V:4] F,2F,2G,2A,2 | 
[V:1] F8 | 
[V:2] d8 | 
[V:3] A8 | 
[V:4] D,8 | 
[V:1] [M:3/1]z12 | 
[V:2] [M:3/1]B8B4 | 
[V:3] [M:3/1]G8d4 | 
[V:4] [M:3/1]z4G,8 | 
[V:1] z12 | 
[V:2] B4B4c4- | 
[V:3] d4e6c2 | 
[V:4] G,4G,4A,4- | 
[V:1] z12 | 
[V:2] c2A2A8 | 
[V:3] c8d4 | 
[V:4] A,2F,2F,8 | 
[V:1] z12 | 
[V:2] B4c4A4 | 
[V:3] e4f6d2 | 
[V:4] G,4A,4F,4 | 
[V:1] z12 | 
[V:2] B4c4d4- | 
[V:3] e4f4g4- | 
[V:4] G,4A,4B,4 | 
[V:1] z12 | 
[V:2] d4B4d4 | 
[V:3] g4g4g4 | 
[V:4] G,8B,4 | 
[V:1] z12 | 
[V:2] c4B6A2 | 
[V:3] f4e6d2 | 
[V:4] A,4G,6F,2 | 
[V:1] z12 | 
[V:2] A8G4 | 
[V:3] d8^c4 | 
[V:4] D,4E,8 | 
[V:1] [M:2/1]z2D2A2A2 | 
[V:2] [M:2/1]B2A4F2 | 
[V:3] [M:2/1]d8 | 
[V:4] [M:2/1]D,8 | 
[V:1] B2G2A3B | 
[V:2] G2E2D4 | 
[V:3] z2G2d2d2 | 
[V:4] z8 | 
[V:1] c4z4 | 
[V:2] A4z4 | 
[V:3] e2c2d3e | 
[V:4] z2A,2B,2G,2 | 
[V:1] z4z2A2 | 
[V:2] z2d2e2f2 | 
[V:3] f4z4 | 
[V:4] A,2B,2C2A,2 | 
[V:1] B2G2A2B2 | 
[V:2] g2e2f3d | 
[V:3] z4z2d2 | 
[V:4] G,4z4 | 
[V:1] c2A2G4 | 
[V:2] c2d2G4 | 
[V:3] e2f2g2e2 | 
[V:4] z4z2G,2 | 
[V:1] z8 | 
[V:2] z4z2c2 | 
[V:3] f2d2c4 | 
[V:4] A,2B,2C2A,2 | 
[V:1] z2G2A2F2 | 
[V:2] d2e2f2d2 | 
[V:3] z8 | 
[V:4] B,2G,2F,4 | 
[V:1] G2A2B4 | 
[V:2] e2c2d2e2 | 
[V:3] z8 | 
[V:4] z8 | 
[V:1] z2A4A2 | 
[V:2] f4f3f | 
[V:3] d6d2 | 
[V:4] D,6D,2 | 
[V:1] A2G2c3B | 
[V:2] f2g2f2d2 | 
[V:3] d2G2A2B2 | 
[V:4] D,2E,2F,2G,2 | 
[V:1] AGG3^FFE | 
[V:2] _e4d4 | 
[V:3] c3BA4 | 
[V:4] C,4D,4 | 
[V:1] G8 | 
[V:2] B2c3BG2- | 
[V:3] G8 | 
[V:4] _E,2C,3D,E,F, | 
[V:1] z4z4 | 
[V:2] GABcdefg | 
[V:3] z8 | 
[V:4] G,3A,B,CD2- | 
[V:1] z8 | 
[V:2] abg3^f^fe | 
[V:3] z8 | 
[V:4] D2B,2A,4 | 
[V:1] z4z2G2 | 
[V:2] g8 | 
[V:3] z8 | 
[V:4] G,8 | 
[V:1] B2A3Bc2 | 
[V:2] z2d2f2e2- | 
[V:3] z8 | 
[V:4] z8 | 
[V:1] G4z4 | 
[V:2] efg2d4 | 
[V:3] z2G2B2A2- | 
[V:4] z4z2D,2 | 
[V:1] z8 | 
[V:2] z4z2d2 | 
[V:3] ABc2G4 | 
[V:4] F,2E,3F,G,2 | 
[V:1] z8 | 
[V:2] f2e3fg2 | 
[V:3] z8 | 
[V:4] D,2A,2C2B,2- | 
[V:1] z4z2A2 | 
[V:2] d4e2f2- | 
[V:3] z2B2c2d2- | 
[V:4] B,CD2A,2D,2 | 
[V:1] A2d3cBA | 
[V:2] fef2g2d2 | 
[V:3] dcBAG2B2- | 
[V:4] D3CB,A,G,F, | 
[V:1] G2F3EED | 
[V:2] e2c3Bc2 | 
[V:3] BcA2G4 | 
[V:4] E,2F,2C,4 | 
[V:1] F2A2B2c2 | 
[V:2] A2f2g2e2 | 
[V:3] F4z4 | 
[V:4] z8 | 
[V:1] A4z4 | 
[V:2] f4z4 | 
[V:3] z2A2B2c2 | 
[V:4] z2F,2G,2E,2 | 
[V:1] z2A2B2G2 | 
[V:2] z2f2d2e2 | 
[V:3] A2c2B2c2 | 
[V:4] F,2F,2G,2E,2 | 
[V:1] A2F2G3E | 
[V:2] c2d2B2G2 | 
[V:3] A2B2G2B2- | 
[V:4] F,2D,2E,4 | 
[V:1] F2G3^FFE | 
[V:2] d8 | 
[V:3] B2AGA4 | 
[V:4] D,8 | 
[V:1] G2B2A2F2 | 
[V:2] z8 | 
[V:3] G2G2d2d2 | 
[V:4] z8 | 
[V:1] G2A2B2G2 | 
[V:2] z8 | 
[V:3] e2c2d2e2 | 
[V:4] z8 | 
[V:1] A2d4d2 | 
[V:2] z2f4f2 | 
[V:3] f2d4d2 | 
[V:4] z2B,4B,2 | 
[V:1] d2c3AB2 | 
[V:2] g3fc2d2 | 
[V:3] d2e2f2g2 | 
[V:4] B,2C2A,2G,2 | 
[V:1] c2G2z4 | 
[V:2] z2e4d2 | 
[V:3] z2g4g2 | 
[V:4] C6B,2 | 
[V:1] z8 | 
[V:2] c2B2A2G2 | 
[V:3] f3ed2^c2 | 
[V:4] A,2G,2F,2E,2 | 
[V:1] z8 | 
[V:2] A4z2f2- | 
[V:3] d4z2d2- | 
[V:4] D,4B,4- | 
[V:1] d3dd2d2 | 
[V:2] fff2f2g2 | 
[V:3] d2d2d2G2 | 
[V:4] B,2B,2B,2B,2 | 
[V:1] c2B2AGB2- | 
[V:2] c2d2f4 | 
[V:3] A2B2c2d2 | 
[V:4] A,2G,2F,2D,2 | 
[V:1] BAG4^F2 | 
[V:2] B3cd4 | 
[V:3] G4A4 | 
[V:4] E,4D,4 | 
[V:1] G2z2G2A2 | 
[V:2] z2d2e2f2 | 
[V:3] G4z4 | 
[V:4] z8 | 
[V:1] B2c2A2B2 | 
[V:2] g2e2f2g2 | 
[V:3] z8 | 
[V:4] z8 | 
[V:1] c2d2G2z2 | 
[V:2] a2d2z4 | 
[V:3] z2B2c2d2 | 
[V:4] z4z2D,2 | 
[V:1] z8 | 
[V:2] z4z2e2 | 
[V:3] G2A2B2A2 | 
[V:4] _E,2D,2B,,2C,2 | 
[V:1] z4z2A2- | 
[V:2] f2e2c2d2 | 
[V:3] F2G2A2F2 | 
[V:4] D,3E,F,3E, | 
[V:1] AGG4^F2 | 
[V:2] e2c2d4 | 
[V:3] G4A4 | 
[V:4] C,2E,2D,4 | 
[V:1] G8 | 
[V:2] B4G4 | 
[V:3] G4z4 | 
[V:4] z2D2D2D2 | 
[V:1] z4z2d2 | 
[V:2] z2d2d2d2 | 
[V:3] G8 | 
[V:4] B,3G,G,4 | 
[V:1] d2d2B3G | 
[V:2] B3GG4 | 
[V:3] d8 | 
[V:4] z2G,2G,2G,2 | 
[V:1] G4z2c2 | 
[V:2] z2c2c2c2 | 
[V:3] e8 | 
[V:4] E,3C,C,4 | 
[V:1] c2c2A3F | 
[V:2] A3FF4 | 
[V:3] c8 | 
[V:4] z2F,2F,2F,2 | 
[V:1] F8 | 
[V:2] z2f2f2f2 | 
[V:3] d8 | 
[V:4] D,3B,,B,,4 | 
[V:1] z4z2d2 | 
[V:2] d3BB4 | 
[V:3] f8 | 
[V:4] z2D2D2D2 | 
[V:1] d2d2B3G | 
[V:2] z8 | 
[V:3] d8 | 
[V:4] B,3G,G,4 | 
[V:1] G2c2c2c2 | 
[V:2] c2c2c2A2- | 
[V:3] e8 | 
[V:4] z2A,2A,2A,2 | 
[V:1] A3FF4 | 
[V:2] AFF2z2d2 | 
[V:3] f4z2f2 | 
[V:4] F,3D,D,4 | 
[V:1] z4z2B2 | 
[V:2] _e3dc2B2 | 
[V:3] g3fe2d2 | 
[V:4] z4z2G,2 | 
[V:1] c3BA2G2 | 
[V:2] A4z4 | 
[V:3] c4z2c2 | 
[V:4] A,3G,F,2E,2 | 
[V:1] F8 | 
[V:2] z8 | 
[V:3] d3cB2A2 | 
[V:4] D,4z2D,2 | 
[V:1] z4z2G2 | 
[V:2] z4z2G2 | 
[V:3] G3AB2c2 | 
[V:4] _E,4E,4 | 
[V:1] A2G3^FFE | 
[V:2] d4d3c | 
[V:3] F2G2A4 | 
[V:4] D,8 | 
[V:1] G4B4 | 
[V:2] BAB4AG | 
[V:3] G8 | 
[V:4] z8 | 
[V:1] A4c4 | 
[V:2] F2f4c2- | 
[V:3] z8 | 
[V:4] z4F,4 | 
[V:1] G4B4 | 
[V:2] c2e4d2- | 
[V:3] z4z2B2- | 
[V:4] E,4G,4 | 
[V:1] F4A4 | 
[V:2] d2f4c2 | 
[V:3] B2A4c2- | 
[V:4] D,4F,4 | 
[V:1] G3ABcd2 | 
[V:2] e4d4 | 
[V:3] c2G4B2 | 
[V:4] E,4G,4 | 
[V:1] c2A2cBAG | 
[V:2] f4e4 | 
[V:3] A2c4c2 | 
[V:4] A,4A,4 | 
[V:1] F2A2G2c2 | 
[V:2] d2f2e2c2 | 
[V:3] d4G2A2 | 
[V:4] D,4E,2F,2 | 
[V:1] B2A4GF | 
[V:2] z2c4B2 | 
[V:3] B2c2F3G | 
[V:4] G,2C,2D,4 | 
[V:1] E2F3EED | 
[V:2] c3dc4 | 
[V:3] A3BG4 | 
[V:4] C,8 | 
[V:1] F4z2A2 | 
[V:2] A4z2f2 | 
[V:3] F8 | 
[V:4] z8 | 
[V:1] B2A2B2c2 | 
[V:2] g2f2g2e2 | 
[V:3] z8 | 
[V:4] z8 | 
[V:1] A2B2G2A2- | 
[V:2] f2d2e2f2 | 
[V:3] z4z2A2 | 
[V:4] z4z2F,2 | 
[V:1] AGc2B2G2 | 
[V:2] z2f2d2e2 | 
[V:3] B2A2B2c2 | 
[V:4] G,2F,2G,2E,2 | 
[V:1] A2F2B2A2- | 
[V:2] c2d2z2d2 | 
[V:3] A2B2G2A2 | 
[V:4] F,2D,2E,2F,2- | 
[V:1] AGFED2F2- | 
[V:2] c2d2z2d2 | 
[V:3] z2A2B2A2 | 
[V:4] F,E,D,C,B,,2D,2- | 
[V:1] FGABcGB2- | 
[V:2] f2e2g4- | 
[V:3] B2c4G2 | 
[V:4] D,2C,2_E,4 | 
[V:1] B2AG^FGAF | 
[V:2] g2f3edc | 
[V:3] B3cA4 | 
[V:4] D,8 | 
[V:1] G8 |]  
[V:2] d8 |]  
[V:3] G8 |]  
[V:4] G,8 |]  



